X:101
T:Trip to Pakistan
R:reel
C:Nial Kenny
D:Tannahill Weavers' "Capernaum" album.
S:Sarah Jane Summers - Falkirk Fiddle Workshop
S:Ted Hastings <ted@hastings.nu> scots-l 2000-11-28
M:4/4
L:1/8
K:Bm
(Bd) (fB) (d3f) | (e3d) cd ec|(Bd) (fB) (d3f)|ed cd B2 B2:|
(Bd) (fB) g3 e|f3 a (fe) (fd)|(Bd) (fB) g3 e|fe df e2 e2:|
vcd f(c df) cd|Bc d(B cd) gc|Ac e(A ce) Ac|ed cd B2 B2:|
